X: 36590
T: Shakin's A' Da Barley
R: reel
M: 4/4
K: Dmajor
A2 AB AFAB|ABdF EDEF|AFAB ABde|fdef dd d2:|
f2 df afef|e2 ce Aece|f2 df afed|efge ed d2:|

